**kern	**kern	**dynam
*part1	*part1	*part1
*staff2	*staff1	*
*I"Piano	*	*
*clefF4	*clefG2	*
*k[b-e-a-]	*k[b-e-a-]	*
=1	=1	=1
*	*^	*
8r	(8gL	16e-LL	.
.	.	16B-	.
4.BBB- [4.BB-	8g-X	16e-	.
.	.	16AnJJ	.
.	8f	16e-LL	.
.	.	16A-X	.
.	8dJ)	16B-	.
.	.	16A-JJ	.
=	=	=	=
*^	*	*	*
8BB-L]	[2EE-	(16e-LL	16e-KL	.
.	.	16G	8G	.
(8BB-	.	16d-X	.	.
.	.	16A-JJ	8A-	.
8AA-	.	16cLL	.	<
.	.	16An	8A	.
8CJ	.	16e-	.	.
.	.	[16B-JJ	16B-Jk	.
=	=	=	=	=
8BB-L	4.EE-]	16dnLL	16B-KL]	.
.	.	16Bn	8B	.
8D	.	16f	.	.
.	.	16cJJ	8c	.
8C	.	16e-LL	.	[
.	.	16d	8dn	.
8FJ)	8C-X	16a-	.	.
.	.	16e-JJ	16e-Jk	.
=	=	=	=	=
4.E-	8BB-X	16gLL	16gKL	.
.	.	(16g-XJ	[8.g-J	.
.	(4AAn 4c	8ee-J)	.	.
!	!	!LO:TX:a:i:t=ritard.	!	!
.	.	8g-L])	16re	.
.	.	.	[8.A-X	.
8ryy	[8BB-) [8D [8B-	[8fJ [8b-	.	.
*v	*v	*	*	*
=	=	=	=
(4BB-] 4D] 4B-_	(4f] 4b-]	8.A-L]	.
.	.	(8GnJ	.
4E-) 4B-]	4G)) 4e-	.	.
*	*v	*v	*
=	=	=
4r	4r	.
4EE- 4BB- 4E-	4G 4B- 4e-	.
=	=	=
2EE- 2BB- 2E-	2G 2B- 2e-	.
==	==	==
*-	*-	*-
!!!system-decoration: {(s1,s2)}
